packages/IcoMoon/src/TicketIcon/index.svg

<svg version="1.1" xmlns="http://www.w3.org/2000/svg" width="16" height="16" viewBox="0 0 16 16">
<path d="M9 5l2 2-4 4-2-2zM15.649 4.649l-1.149-1.149-0.5 0.5c-0.256 0.256-0.61 0.414-1 0.414-0.781 0-1.414-0.633-1.414-1.414 0-0.391 0.158-0.744 0.415-1l0.5-0.5-1.149-1.149c-0.468-0.468-1.235-0.468-1.703 0l-9.297 9.297c-0.468 0.468-0.468 1.235 0 1.703l1.149 1.149 0.499-0.499c0.256-0.256 0.61-0.415 1.001-0.415 0.781 0 1.414 0.633 1.414 1.414 0 0.391-0.158 0.744-0.415 1l-0.5 0.5 1.149 1.149c0.468 0.468 1.234 0.468 1.703 0l9.297-9.297c0.468-0.468 0.468-1.235 0-1.703zM7 13l-4-4 6-6 4 4-6 6z"></path>
</svg>

<svg xmlns="http://www.w3.org/2000/svg" viewBox="0 0 16 16">
  <path d="M9 5l2 2-4 4-2-2zm6.649-.351L14.5 3.5 14 4a1.414 1.414 0 11-1.999-2l.5-.5L11.352.351a1.208 1.208 0 00-1.703 0L.352 9.648a1.208 1.208 0 000 1.703L1.501 12.5 2 12.001A1.414 1.414 0 114 14l-.5.5 1.149 1.149a1.208 1.208 0 001.703 0l9.297-9.297a1.208 1.208 0 000-1.703zM7 13L3 9l6-6 4 4-6 6z"/>
</svg>
